X:1
T: Judy's Reel
P:Ryan's version
R:Reel
Q: 232
K:D
M:4/4
L:1/8
|:D2|FA AB AF ED|FA AB AB de|fB BA Bc de|fB BA Bc dA|
FA AB AF ED|FA AB AB de|fB BA Bc dA|AF EF D2:|
|:eg|fg ab af de|fd ad bd fd|ed fa be ef|((3gfe) be gf eg|
fg af bf af|de fd ef de|fB BA Bc dA|AF EF D2:|
